X:1
T:Baniderie
T:Baniderie
T:Arranged for Brass Trio
T:J.S. Bach
T:arr. Jack Rozza
T:arr. Jack Rozza
C:J.S. Back
Z:arr. Jack Rozza
%%score 1 2 3
L:1/8
M:2/4
K:D
V:1 treble nm="C Trumpet" snm="C Tpt."
V:2 treble transpose=-7 nm="Horn in F" snm="F Hn."
V:3 bass nm="Trombone" snm="Tbn."
V:1
 .Bd/B/ | .FB/F/ .DF/D/ | B,2 F/B/d/B/ | c/B/c/B/ ^A/c/e/c/ | .d.B .Bd/B/ | .FB/F/ .DF/D/ | %6
 B,2 .D.D | .D.D .B.D | TD.C .F.F | .F.F .d.F | TF.^E C/F/A/F/ | ^G/F/G/F/ ^E/G/B/G/ | %12
 A/^G/A/G/ F/A/(F/^E/ | F/)B/(F/^E/ F/)c/(F/E/ | F/)d/(F/^E/ F/)d/c/B/ | c/A/^G/F/ .ATG | %16
[M:1/4] F2 :| .FA/F/ |[M:2/4] .CF/C/ .A,C/A,/ | F,2 (=CB,) | (E^D/)F/ .AG/F/ | .G.E .GB/G/ | %22
 .EG/E/ .CE/C/ | A,2- A,/.D/.F/.D/ | .E/.D/.E/.D/ .C/.E/.G/.E/ | .F/.E/.F/.E/ .D/F/(D/C/ | %26
 D/)G/(D/C/ D/)A/(D/C/ | D/)B/(D/C/ D/).B/.A/.G/ | .A/.F/.E/.D/ .FTE | D2 .F.F | .F.F .d.F | %31
 TF.E .E.E | .E.E .e.E | TE.D .Bd/B/ |{/A} G2- G(B/4A/4G/4F/4) | E2- E(G/4F/4E/4D/4) | %36
 .=C/.E/.G/.E/ (C/B,/)(C/B,/) | (^A,F,) (G,F,) | .B,^A,/C/ .ED/C/ | .D(B,/4C/4D/4E/4 F)D/F/ | %40
[Q:1/4=100] .B.F[Q:1/4=80] .E/.D/.C/.D/ |[M:1/4][Q:1/4=60]{/C} B,2 |] %42
V:2
[K:A] .A z | .F z .C z | A,2 .A,.C | .D.B, .C.C | .C.A, .A z | .F z .C z | A,2 .F.C | .F.^D .F.B, | %8
 .B,.E .C.E | .A.F .A.^D | .^D.G .C.G | .A.A .G.G | .G.G .F z | .C z .E z | .F z .^D.F | %15
 .E.A .G.F |[M:1/4] E2 :| .e z |[M:2/4] .c z .G z | E2 .C z | .D z .F z | .F z .f z | .e z .e z | %23
 B2 .e.c | .f.d .e.e | .E.e .c z | .A z .c z | .d z .B.d | .c.f .e.d | c2 .A.E | .A,.E .C.E | %31
 .E2 .G.^E | .G.^E .G.E | E2 z2 | z .f/.d/ .B z | z .d/.B/ .F z | z .D .=G.B | G2 .G z | %38
 ^A z .c z | c2 z .c/.f/ | .a.A .G.c |[M:1/4] A2 |] %42
V:3
!p! .B,,.B,, | .D,.B,, .F,.D, | .B,.F, .D,.B,, | .E,.A,, .F,.F,, | B,,/C,/D,/C,/ .B,,.B,, | %5
 .D,.B,, .F,.D, | .B,.F, .B,D/B,/ | .^G,B,/G,/ .E,G,/E,/ | .A,C/A,/ .DF/D/ | .B,D/B,/ .^G,B,/G,/ | %10
 C/D/C/B,/ .A,.F, | .B,.^G, .C.C, | .F,.F,, .F,.A, | .D,.B, .C,.C | .B,,.D .B,.^G, | .A,.B, .C.C, | %16
[M:1/4] F,2 :| .F,,.F,, |[M:2/4] .A,,.F,, .C,.A,, | .F,A,/F,/ .^D,F,/D,/ | (B,,B,, B,,B,,) | %21
 .E,B,/G,/ .E,G,/E,/ | .C,.A,, .E,.C, | .G,.E, .F,.B, | .G,.E, .A,.A,, | .D,.D, .=C,.F, | %26
 .B,,.G, .A,,.A, | .G,,.B, .G,.E, | .F,.G, .A,.A,, | .D,A,,/F,,/ .D,,D,/B,,/ | %30
 .F,,A,/F,/ .D,F,/D,/ | .A,E,/C,/ .^A,,E,/C,/ | .^A,,C,/A,,/ .F,,A,,/F,,/ | .B,,.F, .D,.B,, | %34
 (E,E, E,)E,, | (E,E, E,)E,, | (E,E, E,)E,, | .E,E/C/ .^A,C/A,/ | .F,.F, .F,.F, | %39
 .B,D/B,/ .F,B,/F,/ | .D,B,,/D,/ .F,.F,, |[M:1/4] B,,2 |] %42

